X:225
T:Blaris Moor
B:Joyce, P. W.; "Old Irish Folk Music and Songs"
H:From Mr. T. D. Sullivan, as he learned it in Cork
R:song air
M:C
K:G
L:1/4
D|G>A G F|E2 D3/2 z// d//|d>B e/d/ c/ A/|B>G E F|
G>F G A|B G e d|c B G A|G2 z||
d|e B e f|g2 d g|f g/f/ e/d/ e/f/|e>d B d|
e B e f|g2 d g|f2 g/f/ e/d/ e/f/|e2 z (3G/B/d/|
eB e/g/ f/a/|g2 d g/f/|e d c B|B>G E F|
G>F G A|B G e d|c B G A|G3||


